public/icons/home__icon.svg

<svg width="20" height="19" viewBox="0 0 20 19" fill="none" xmlns="http://www.w3.org/2000/svg">
    <g clip-path="url(#clip0_786_297)">
        <path
            d="M11.5747 12.3535L11.6626 12.3574C11.8386 12.3748 12.0053 12.4446 12.1421 12.5566L12.2075 12.6162L12.2671 12.6816C12.3977 12.841 12.4701 13.0412 12.4702 13.249C12.4702 13.457 12.3979 13.6579 12.2671 13.8174L12.2075 13.8828C12.0396 14.0506 11.8121 14.1454 11.5747 14.1455H7.61572C7.40797 14.1454 7.20766 14.0729 7.04834 13.9424L6.98291 13.8828C6.8359 13.7358 6.74447 13.543 6.72412 13.3379L6.72021 13.249L6.72412 13.1611C6.74441 12.9559 6.83582 12.7633 6.98291 12.6162L7.04834 12.5566C7.20768 12.426 7.4079 12.3536 7.61572 12.3535H11.5747Z"
            fill="#656267" stroke="#656267" />
        <path
            d="M9.59521 0.941406C10.3307 0.94148 11.0444 1.18974 11.6216 1.64551L16.7681 5.70801L16.9097 5.82715C17.2322 6.11289 17.4956 6.4598 17.6841 6.84863L17.7603 7.01758C17.926 7.41551 18.0112 7.84312 18.0112 8.27539V14.6445L18.0073 14.8066C17.9673 15.6152 17.6284 16.3828 17.0532 16.958C16.4399 17.5712 15.6081 17.916 14.7407 17.916H4.44873C3.63545 17.9159 2.85338 17.6127 2.25342 17.0693L2.13623 16.958C1.52283 16.3446 1.17822 15.512 1.17822 14.6445V8.27539L1.18311 8.08984C1.20751 7.65959 1.31693 7.23755 1.50537 6.84863L1.59131 6.68457C1.80089 6.308 2.08318 5.97584 2.42236 5.70801L7.56787 1.64551L7.79053 1.48438C8.32405 1.13146 8.95152 0.941406 9.59521 0.941406ZM9.59521 2.7334C9.30417 2.7334 9.02006 2.81897 8.77881 2.97852L8.67822 3.05176L3.53174 7.11426C3.4003 7.21815 3.28783 7.34343 3.19873 7.48438L3.11768 7.62988C3.02033 7.83093 2.97017 8.05201 2.97021 8.27539V14.6445C2.97021 15.0367 3.12565 15.4131 3.40283 15.6904L3.51123 15.7891C3.7744 16.0048 4.10548 16.1239 4.44873 16.124H14.7407C15.133 16.124 15.5092 15.9678 15.7866 15.6904C16.0639 15.4131 16.2202 15.0367 16.2202 14.6445V8.27539L16.2104 8.1084C16.1916 7.94271 16.1449 7.78066 16.0718 7.62988C15.9987 7.47919 15.9011 7.34197 15.7827 7.22461L15.6567 7.11426L10.5112 3.05176C10.2503 2.84576 9.92768 2.73347 9.59521 2.7334Z"
            fill="#656267" stroke="#656267" />
    </g>
    <defs>
        <clipPath id="clip0_786_297">
            <rect width="19" height="19" fill="white" transform="translate(0.0952148)" />
        </clipPath>
    </defs>
</svg>

<svg xmlns="http://www.w3.org/2000/svg" width="20" height="19" fill="none"><g fill="#656267" stroke="#656267" clip-path="url(#a)"><path d="m11.575 12.354.088.003a.897.897 0 0 1 .48.2l.064.06.06.065a.896.896 0 0 1 0 1.135l-.06.066a.896.896 0 0 1-.632.263h-3.96a.896.896 0 0 1-.567-.204l-.065-.06a.897.897 0 0 1-.259-.544l-.004-.089.004-.088a.896.896 0 0 1 .259-.545l.065-.06a.9.9 0 0 1 .568-.202h3.959Z"/><path d="M9.595.941c.736 0 1.45.249 2.027.705l5.146 4.062.142.12c.322.285.586.632.774 1.02l.076.17c.166.398.251.825.251 1.257v6.37l-.004.162a3.272 3.272 0 0 1-3.266 3.109H4.449a3.271 3.271 0 0 1-2.196-.847l-.117-.111a3.272 3.272 0 0 1-.958-2.313v-6.37l.005-.185c.025-.43.134-.852.322-1.241l.086-.164c.21-.377.492-.71.831-.977l5.146-4.062.223-.162A3.272 3.272 0 0 1 9.595.941Zm0 1.792a1.48 1.48 0 0 0-.816.246l-.1.073-5.147 4.062a1.48 1.48 0 0 0-.333.37l-.081.146a1.481 1.481 0 0 0-.148.645v6.37c0 .392.156.768.433 1.045l.108.1c.263.215.594.334.938.334H14.74a1.48 1.48 0 0 0 1.48-1.48V8.276l-.01-.167a1.48 1.48 0 0 0-.428-.883l-.126-.11-5.146-4.063a1.479 1.479 0 0 0-.916-.319Z"/></g><defs><clipPath id="a"><path fill="#fff" d="M.095 0h19v19h-19z"/></clipPath></defs></svg>
